X:1
T:This I Know
T:This I Know
T:William Howard Doane
T:Frances Jane (Fanny) Crosby, 1880
T:Public Domain Courtesy of the Cyber Hymnal™
C:William Howard Doane
Z:Public Domain
Z:Courtesy of the Cyber Hymnal™
%%score 1 ( 2 3 )
L:1/8
Q:1/4=105
M:4/4
K:Ab
V:1 treble 
V:2 bass 
V:3 bass 
V:1
 [Ec]2 [Ec]2 [Fd]2 [Ec][EB] | [FA]2 [DF]2 [CE]4 | [EA]2 [EB]2 [Ec]2 [Fd][Ec] | [EB]2 [=DA]2 [EB]4 | %4
w: 1.~Lord, my trust I re-|pose on Thee;|O how great is Thy|love to me!|
w: 2.~Thou dost lead with a|sweet com- mand,|Thou dost lead with a|gen- tle hand;|
w: 3.~I shall rise to a|world of light,|I shall rest in a|man- sion bright;|
 [Ec]2 [Ec]2 [Fd]2 [Ec][EB] | [FA]2 [DF]2 [CE]4 | [DF]2 [DG]2 [CA]4 | [Ec]2 [DB]2 [CA]4 || %8
w: Thou the strength of my|life shalt be;|This I know,|this I know.|
w: On the rock of Thy|truth I stand;|This I know,|this I know.|
w: Then my faith shall be|lost in sight;|This I know,|this I know.|
"^Refrain" [Ee]4 [Ed]2 [Ec]2 | [Ec]3 [DB] [CA]4 | [EB]2 [Ed]2 [Ec]2 [EB]2 | [Ec]6 z2 | %12
w: ||||
w: Thine, Thine, and|on- ly Thine,|Now and ev- er|Thine;|
w: ||||
 [Ee]2 [Ee]2 [Ec]3 [=EB] | [FA]2 [DF]2 [CE]4 | [DF]2 [EG]2 [EA]4 | [Ec]2 [DB]2 [CA]4 |] %16
w: ||||
w: Thou dost love me,|Sav- ior mine;|This I know,|this I know.|
w: ||||
V:2
 [A,,A,]2 [A,,A,]2 [A,,A,]2 [A,,A,][C,A,] | [D,D]2 [D,A,]2 [A,,A,]4 | [C,A,]2 [E,G,]2 A,2 A,A, | %3
 [G,B,]2 [F,B,]2 [E,G,]4 | [A,,A,]2 [A,,A,]2 [A,,A,]2 [A,,A,][C,A,] | [D,D]2 [D,A,]2 [A,,A,]4 | %6
 [D,A,]2 [B,,E,]2 [A,,E,]4 | [E,A,]2 [E,G,]2 [A,,A,]4 || [A,C]4 [G,B,]2 A,2 | %9
 [E,A,]3 [E,G,] [F,A,]4 | [E,G,]2 [E,B,]2 [E,A,]2 [E,G,]2 | [A,,A,]6 z2 | %12
 [A,C]2 [A,C]2 A,3 [C,G,] | [D,F,]2 [D,A,]2 [A,,A,]4 | [D,A,]2 [B,,D]2 [A,,C]4 | %15
 [E,A,]2 [E,A,]2 [A,,A,]4 |] %16
V:3
 x8 | x8 | x4 A,2 A,A, | x8 | x8 | x8 | x8 | x8 || x6 A,2 | x8 | x8 | x8 | x4 A,3 x | x8 | x8 | %15
 x8 |] %16

